X: 8812
T: Cuigiu Lasses, The
R: jig
M: 6/8
K: Gmajor
|:BAB G2D|EDE GED|~G3 AGE|ABA AGA|
BAB G2D|EDE GED|~G3 AGE|GAG G2A:|
BAB GBd|ede g2e|dBG AGE|ABA AGA|
BAB GBd|ede g2e|dBG AGE|GAG G2A|
BAB GBd|ede g2e|dBG AGE|ABA AGA|
BAB G2D|EDE GED|~G3 AGE|GAG G2A||

